src/svg/beer.svg

<svg version="1.2" baseProfile="tiny" xmlns="http://www.w3.org/2000/svg" width="24" height="24" viewBox="0 0 24 24"><g><path d="M10 16.5c0 .275-.225.5-.5.5s-.5-.225-.5-.5v-6c0-.275.225-.5.5-.5s.5.225.5.5v6zM12 16.5c0 .275-.225.5-.5.5s-.5-.225-.5-.5v-6c0-.275.225-.5.5-.5s.5.225.5.5v6zM14 16.5c0 .275-.225.5-.5.5s-.5-.225-.5-.5v-6c0-.275.225-.5.5-.5s.5.225.5.5v6zM18.5 6h-.5v-1c0-1.104-.896-2-2-2h-9c-1.104 0-2 .896-2 2v13c0 1.656 1.344 3 3 3h7c1.656 0 3-1.344 3-3h.5c1.93 0 3.5-1.57 3.5-3.5v-5c0-1.93-1.57-3.5-3.5-3.5zm-11.5-1h9v1h-4.444l-.118.332c-.164.458-.663.73-1.117.648l-.348-.058-.173.307c-.267.475-.765.771-1.3.771-.827 0-1.5-.673-1.5-1.5v-1.5zm9 13c0 .552-.448 1-1 1h-7c-.552 0-1-.448-1-1v-9.51c.419.317.936.51 1.5.51.784 0 1.521-.376 1.989-1 .728 0 1.383-.391 1.736-1h3.775v11zm4-3.5c0 .827-.673 1.5-1.5 1.5h-1.5v-8h1.5c.827 0 1.5.673 1.5 1.5v5z"/></g></svg>

<?xml version="1.0" encoding="iso-8859-1"?>
<!-- Generator: Adobe Illustrator 16.2.1, SVG Export Plug-In . SVG Version: 6.00 Build 0)  -->
<svg version="1.2" baseProfile="tiny" xmlns="http://www.w3.org/2000/svg" xmlns:xlink="http://www.w3.org/1999/xlink" x="0px"
	 y="0px" width="24px" height="24px" viewBox="0 0 24 24" xml:space="preserve">
<g id="Layer_1">
	<g>
		<path d="M10,16.5c0,0.275-0.225,0.5-0.5,0.5S9,16.775,9,16.5v-6C9,10.225,9.225,10,9.5,10s0.5,0.225,0.5,0.5V16.5z"/>
	</g>
	<g>
		<path d="M12,16.5c0,0.275-0.225,0.5-0.5,0.5S11,16.775,11,16.5v-6c0-0.275,0.225-0.5,0.5-0.5s0.5,0.225,0.5,0.5V16.5z"/>
	</g>
	<g>
		<path d="M14,16.5c0,0.275-0.225,0.5-0.5,0.5S13,16.775,13,16.5v-6c0-0.275,0.225-0.5,0.5-0.5s0.5,0.225,0.5,0.5V16.5z"/>
	</g>
	<path d="M18.5,6H18V5c0-1.104-0.896-2-2-2H7C5.896,3,5,3.896,5,5v13c0,1.656,1.344,3,3,3h7c1.656,0,3-1.344,3-3h0.5
		c1.93,0,3.5-1.57,3.5-3.5v-5C22,7.57,20.43,6,18.5,6z M7,5h9v1h-4.444l-0.118,0.332c-0.164,0.458-0.663,0.73-1.117,0.648
		L9.973,6.922L9.8,7.229C9.533,7.704,9.035,8,8.5,8C7.673,8,7,7.327,7,6.5V6V5z M16,18c0,0.552-0.448,1-1,1H8c-0.552,0-1-0.448-1-1
		V8.49C7.419,8.807,7.936,9,8.5,9c0.784,0,1.521-0.376,1.989-1c0.728,0,1.383-0.391,1.736-1H16v1V18z M20,14.5
		c0,0.827-0.673,1.5-1.5,1.5H17V8h1.5C19.327,8,20,8.673,20,9.5V14.5z"/>
</g>
<g id="nyt_x5F_exporter_x5F_info" display="none">
</g>
</svg>
